icons/point-line-24.svg

<svg xmlns="http://www.w3.org/2000/svg" viewBox="0 0 24 24"><path d="M23 8v1h-4V8zM12 8H8v1h4zm3 8h1v-4h-1zm1-15h-1v4h1zm-3 5h5v5h-4.365L4 20.637V23H1v-3h2.365L13 10.364zM3 21H2v1h1zm11-11h3V7h-3z"/><path fill="none" d="M0 0h24v24H0z"/></svg>

<svg id="icons" xmlns="http://www.w3.org/2000/svg" viewBox="0 0 24 24"><defs><style>.cls-1{fill:none;}</style></defs><path d="M23,8V9H19V8ZM12,8H8V9h4Zm3,8h1V12H15ZM16,1H15V5h1ZM13,6h5v5H13.63531L4,20.63666V23H1V20H3.36511L13,10.36383ZM3,21H2v1H3ZM14,10h3V7H14Z"/><rect class="cls-1" width="24" height="24"/></svg>
